ligabank/src/img/svg/tabs/vault.svg

<svg width="34" height="33" viewBox="0 0 34 33" fill="none" xmlns="http://www.w3.org/2000/svg">
<path d="M4.20734 26.063H29.7924V4.36579H4.20734V26.063ZM12.8681 11.7959C14.4742 11.7959 15.8268 12.8933 16.2055 14.3724H23.727V16.056H16.2055C15.8267 17.5352 14.4742 18.6327 12.8681 18.6327C10.9695 18.6327 9.42492 17.0991 9.42492 15.2142C9.42483 13.3294 10.9695 11.7959 12.8681 11.7959Z" fill="#2C36F2"/>
<path d="M0 0V30.4287H2.48008V33H5.44779V30.4287H28.5522V33H31.5199V30.4287H34V0H0ZM2.51162 27.7466V2.68218H31.4884V27.7466H2.51162Z" fill="#2C36F2"/>
</svg>

<svg width="34" height="33" fill="none" xmlns="http://www.w3.org/2000/svg"><path d="M4.2 26.06h25.6V4.36H4.2v21.7zm8.67-14.26c1.6 0 2.96 1.1 3.34 2.57h7.52v1.69H16.2a3.44 3.44 0 0 1-6.79-.85 3.43 3.43 0 0 1 3.45-3.41z" fill="#2C36F2"/><path d="M0 0v30.43h2.48V33h2.97v-2.57h23.1V33h2.97v-2.57H34V0H0zm2.51 27.75V2.68H31.5v25.07H2.5z" fill="#2C36F2"/></svg>
